lib/brands/icons/adobe-xd.svg

<svg xmlns="http://www.w3.org/2000/svg" fill="none" aria-hidden="true" viewBox="0 0 48 48"><g id="adobe-xd-Icon"><g id="Group"><rect width="36" height="36" x="6" y="6" fill="#470137" rx="8"/><g id="Xd"><path fill="#FF61F6" fill-rule="evenodd" d="M31.7642 32.6035C30.6671 32.6184 29.57 32.3953 28.5767 31.9343C27.6427 31.5031 26.8718 30.7893 26.3381 29.9119C25.7895 29.0048 25.5227 27.8746 25.5227 26.5214C25.5078 25.421 25.7895 24.3354 26.3381 23.3837C26.9014 22.4171 27.7168 21.6141 28.6953 21.0787C29.7331 20.4988 30.9785 20.2162 32.4462 20.2162C32.5203 20.2162 32.6241 20.2162 32.7575 20.2311C32.8292 20.2391 32.9052 20.2428 32.9877 20.2468C33.0588 20.2503 33.1348 20.254 33.2171 20.2608V15.5617C33.2171 15.4576 33.2616 15.3981 33.3654 15.3981H36.375C36.4491 15.3833 36.5084 15.4427 36.5232 15.5022V29.6889C36.5232 29.9319 36.5355 30.1995 36.5488 30.4917L36.5529 30.5811C36.578 30.8452 36.5924 31.0987 36.6053 31.3236L36.6122 31.4436C36.6122 31.5477 36.5677 31.6369 36.4639 31.6815C35.693 32.0087 34.8776 32.2466 34.0474 32.3953C33.2913 32.5292 32.5352 32.6035 31.7642 32.6035ZM33.2171 29.6294V23.0863C33.0837 23.0565 32.9503 23.0268 32.8168 23.0119C32.6538 22.997 32.4907 22.9822 32.3276 22.9822C31.7494 22.9822 31.1712 23.1011 30.6523 23.3688C30.1482 23.6216 29.7183 23.9934 29.3921 24.4692C29.066 24.9451 28.9029 25.5845 28.9029 26.3578C28.8881 26.8783 28.977 27.3988 29.1549 27.8895C29.3032 28.291 29.5256 28.6479 29.8221 28.9453C30.1038 29.213 30.4447 29.4212 30.8302 29.5401C31.2305 29.674 31.6456 29.7335 32.0607 29.7335C32.2831 29.7335 32.4907 29.7186 32.6834 29.7037C32.8761 29.7186 33.0392 29.6889 33.2171 29.6294Z" clip-rule="evenodd"/><path fill="#FF61F6" d="M20.4673 24.2759L24.9149 16.9149C24.9446 16.8852 24.9742 16.8257 24.9594 16.8108C24.9446 16.7365 24.8705 16.6919 24.7963 16.7067H21.6681C21.594 16.6919 21.5347 16.7067 21.4754 16.7365C21.4309 16.7662 21.4013 16.8257 21.3864 16.8852C21.2533 17.134 21.1202 17.3878 20.9861 17.6435C20.7916 18.0143 20.595 18.3892 20.3931 18.7589C20.0521 19.3835 19.7112 20.008 19.385 20.6326C19.0588 21.2572 18.7327 21.8966 18.4213 22.5509H18.3917C18.0803 21.9115 17.7542 21.2869 17.3984 20.6624C17.095 20.1512 16.8115 19.64 16.5235 19.1207C16.4596 19.0055 16.3955 18.8899 16.3309 18.7738C15.9899 18.1343 15.6638 17.4949 15.3821 16.8555C15.3376 16.796 15.2931 16.7514 15.2338 16.7216C15.1745 16.7067 15.1004 16.6919 15.0263 16.6919H11.6609C11.6016 16.6919 11.5423 16.7067 11.5126 16.7514C11.483 16.7811 11.4978 16.8406 11.5423 16.9001L16.0344 24.5287L11.4237 32.1128C11.394 32.1574 11.3792 32.2169 11.394 32.2764C11.394 32.3326 11.4194 32.3293 11.4575 32.3243C11.4698 32.3227 11.4833 32.321 11.4978 32.321H14.7594C14.9225 32.321 15.0411 32.3061 15.1004 32.1574C15.3277 31.7509 15.555 31.3313 15.7824 30.9116C15.896 30.7017 16.0097 30.4919 16.1234 30.2837C16.4495 29.6591 16.7905 29.0197 17.1315 28.3802C17.4725 27.7408 17.8135 27.1014 18.1248 26.4619H18.1545C18.5103 27.1162 18.8661 27.7557 19.2219 28.3951C19.5777 29.0346 19.9187 29.6591 20.23 30.2688C20.3857 30.5811 20.5451 30.8897 20.7045 31.1982C20.8638 31.5068 21.0232 31.8154 21.1789 32.1277C21.2827 32.2764 21.4457 32.2912 21.683 32.2912H25.078C25.1124 32.2855 25.1423 32.2886 25.167 32.2912C25.2061 32.2953 25.232 32.298 25.2411 32.2615C25.2559 32.202 25.2411 32.1425 25.2114 32.083L20.4673 24.2759Z"/></g></g></g></svg>

<svg xmlns="http://www.w3.org/2000/svg" fill="none" aria-hidden="true" viewBox="0 0 48 48"><rect width="36" height="36" x="6" y="6" fill="#470137" rx="8"/><path fill="#FF61F6" fill-rule="evenodd" d="M31.764 32.603a7.352 7.352 0 0 1-3.188-.669 5.175 5.175 0 0 1-2.238-2.022c-.549-.907-.816-2.037-.816-3.39a6.123 6.123 0 0 1 .816-3.138 6.165 6.165 0 0 1 2.357-2.305c1.038-.58 2.283-.863 3.751-.863.074 0 .178 0 .311.015.072.008.148.012.23.016.072.003.148.007.23.014v-4.7c0-.104.044-.163.148-.163h3.01c.074-.015.133.045.148.104V29.69c0 .243.012.51.026.803l.004.089c.025.264.04.518.052.742l.007.12c0 .105-.044.194-.148.238a11.3 11.3 0 0 1-2.417.714 13.02 13.02 0 0 1-2.283.208Zm1.453-2.974v-6.543a3.509 3.509 0 0 0-.4-.074 5.389 5.389 0 0 0-.49-.03c-.578 0-1.156.12-1.675.387a3.326 3.326 0 0 0-1.26 1.1c-.326.476-.49 1.115-.49 1.889a4.17 4.17 0 0 0 .253 1.531c.148.402.37.759.667 1.056a2.56 2.56 0 0 0 1.008.595c.4.134.815.193 1.23.193.223 0 .43-.015.623-.03.193.015.356-.014.534-.074Z" clip-rule="evenodd"/><path fill="#FF61F6" d="m20.467 24.276 4.448-7.361c.03-.03.059-.09.044-.104a.137.137 0 0 0-.163-.104h-3.128a.282.282 0 0 0-.193.03.257.257 0 0 0-.089.148c-.133.249-.266.503-.4.758-.195.371-.391.746-.593 1.116a110.3 110.3 0 0 0-1.008 1.874 57.748 57.748 0 0 0-.964 1.918h-.03a32.776 32.776 0 0 0-.993-1.889 60.523 60.523 0 0 1-.875-1.541l-.192-.347a28.732 28.732 0 0 1-.95-1.919.42.42 0 0 0-.147-.133.87.87 0 0 0-.208-.03h-3.365c-.06 0-.119.015-.149.06-.03.029-.014.088.03.148l4.492 7.629-4.61 7.584a.204.204 0 0 0-.03.163c0 .056.025.053.063.048.012-.001.026-.003.04-.003h3.262c.163 0 .282-.015.341-.164.228-.406.455-.826.682-1.245l.341-.628c.326-.625.667-1.264 1.008-1.904.341-.64.682-1.279.994-1.918h.03c.355.654.71 1.294 1.067 1.933.355.64.697 1.264 1.008 1.874.155.312.315.62.474.93.16.308.319.616.475.929.103.148.267.163.504.163h3.395c.034-.006.064-.002.089 0 .039.004.065.007.074-.03a.256.256 0 0 0-.03-.178l-4.744-7.807Z"/></svg>
